X:35
T:Fair Fanny
M:C|
L:1/8
B:Thompson's Compleat Collection of 200 Favourite Country Dances, vol. 1 (London, 1757)
Z:Transcribed and edited by Fynnian Titford-Mock, 2007
Z:abc's:AK/Fiddler's Companion
K:Dmin
A2|d2e2f2 ed|e2A2 B4|A2 GF E2A2|F2D2  A4|d2e2f2 ed|e2A2 f4|e2A2 c=B A^G|A6:|
|:e2|gfed ^c2d2|{B}A4 =B4|^c2d2e2f2|"tr"(g2f2) "tr"(f2e2)|  gfed ^c2d2|{B}A4d4|A2d2 fed^c|d6:|

